icons/parking.svg

<svg xmlns="http://www.w3.org/2000/svg" width="96" height="96"><path d="M12 4h72c2.1 0 4.2.8 5.7 2.3C91.2 7.8 92 9.9 92 12v72c0 2.1-.8 4.2-2.3 5.7-1.5 1.5-3.6 2.3-5.7 2.3H12c-2.1 0-4.2-.8-5.7-2.3C4.8 88.2 4 86.1 4 84V12c0-2.1.8-4.2 2.3-5.7C7.8 4.8 9.9 4 12 4zm0 8h72v72H12V12zm16 44V28c0-2.1.8-4.2 2.3-5.7 1.5-1.5 3.6-2.3 5.7-2.3h16c3.4 0 6.7 1 9.6 2.9 1.2.8 2.2 1.8 3.2 3 1 1.3 2 2.7 2.8 4.3 1.6 3 2.4 6.4 2.5 9.8-.1 3.4-.9 6.8-2.5 9.8-.8 1.6-1.8 3-2.8 4.3-1 1.2-2 2.2-3.2 3C58.7 59 55.4 60 52 60H36v12c0 1.1-.4 2.1-1.2 2.8-.7.8-1.7 1.2-2.8 1.2-1.1 0-2.1-.4-2.8-1.2-.8-.7-1.2-1.7-1.2-2.8V56m8-4h16c1.8 0 4.69-.833 6.6-2.9.904-.978 1.3-1.9 1.8-2.9 1.1-1.9 1.6-4 1.7-6.2-.1-2.2-.6-4.3-1.7-6.2-.5-1-1.1-2-1.8-2.9-.5-.5-1-1-1.5-1.3-1.5-1.1-3.3-1.6-5.1-1.6H36v24z" fill-rule="evenodd" fill="#454545"/></svg>

<?xml version="1.0" standalone="no"?><!-- Generator: Gravit.io --><svg xmlns="http://www.w3.org/2000/svg" xmlns:xlink="http://www.w3.org/1999/xlink" width="96" height="96"><path d=" M 12 4 L 84 4 C 86.1 4 88.2 4.8 89.7 6.3 C 91.2 7.8 92 9.9 92 12 L 92 84 C 92 86.1 91.2 88.2 89.7 89.7 C 88.2 91.2 86.1 92 84 92 L 12 92 C 9.9 92 7.8 91.2 6.3 89.7 C 4.8 88.2 4 86.1 4 84 L 4 12 C 4 9.9 4.8 7.8 6.3 6.3 C 7.8 4.8 9.9 4 12 4 Z  M 12 12 L 84 12 L 84 84 L 12 84 L 12 12 Z  M 28 56 L 28 28 C 28 25.9 28.8 23.8 30.3 22.3 C 31.8 20.8 33.9 20 36 20 L 52 20 C 55.4 20 58.7 21 61.6 22.9 C 62.8 23.7 63.8 24.7 64.8 25.9 C 65.8 27.2 66.8 28.6 67.6 30.2 C 69.2 33.2 70 36.6 70.1 40 C 70 43.4 69.2 46.8 67.6 49.8 C 66.8 51.4 65.8 52.8 64.8 54.1 C 63.8 55.3 62.8 56.3 61.6 57.1 C 58.7 59 55.4 60 52 60 L 36 60 L 36 72 C 36 73.1 35.6 74.1 34.8 74.8 C 34.1 75.6 33.1 76 32 76 C 30.9 76 29.9 75.6 29.2 74.8 C 28.4 74.1 28 73.1 28 72 L 28 56 M 36 52 L 52 52 C 53.8 52 56.69093052376675 51.16657924514822 58.6 49.1 C 59.50387492417372 48.12154993217276 59.9 47.2 60.4 46.2 C 61.5 44.3 62 42.2 62.1 40 C 62 37.8 61.5 35.7 60.4 33.8 C 59.9 32.8 59.3 31.8 58.6 30.9 C 58.1 30.4 57.6 29.9 57.1 29.6 C 55.6 28.5 53.8 28 52 28 L 36 28 L 36 52 Z " fill-rule="evenodd" fill="#454545" stroke="none"/><mask id="_mask_BlEAxTJPlfnnOBLNoncygk35x2Rzs3X5"><path d=" M 12 4 L 84 4 C 86.1 4 88.2 4.8 89.7 6.3 C 91.2 7.8 92 9.9 92 12 L 92 84 C 92 86.1 91.2 88.2 89.7 89.7 C 88.2 91.2 86.1 92 84 92 L 12 92 C 9.9 92 7.8 91.2 6.3 89.7 C 4.8 88.2 4 86.1 4 84 L 4 12 C 4 9.9 4.8 7.8 6.3 6.3 C 7.8 4.8 9.9 4 12 4 Z  M 12 12 L 84 12 L 84 84 L 12 84 L 12 12 Z  M 28 56 L 28 28 C 28 25.9 28.8 23.8 30.3 22.3 C 31.8 20.8 33.9 20 36 20 L 52 20 C 55.4 20 58.7 21 61.6 22.9 C 62.8 23.7 63.8 24.7 64.8 25.9 C 65.8 27.2 66.8 28.6 67.6 30.2 C 69.2 33.2 70 36.6 70.1 40 C 70 43.4 69.2 46.8 67.6 49.8 C 66.8 51.4 65.8 52.8 64.8 54.1 C 63.8 55.3 62.8 56.3 61.6 57.1 C 58.7 59 55.4 60 52 60 L 36 60 L 36 72 C 36 73.1 35.6 74.1 34.8 74.8 C 34.1 75.6 33.1 76 32 76 C 30.9 76 29.9 75.6 29.2 74.8 C 28.4 74.1 28 73.1 28 72 L 28 56 M 36 52 L 52 52 C 53.8 52 56.69093052376675 51.16657924514822 58.6 49.1 C 59.50387492417372 48.12154993217276 59.9 47.2 60.4 46.2 C 61.5 44.3 62 42.2 62.1 40 C 62 37.8 61.5 35.7 60.4 33.8 C 59.9 32.8 59.3 31.8 58.6 30.9 C 58.1 30.4 57.6 29.9 57.1 29.6 C 55.6 28.5 53.8 28 52 28 L 36 28 L 36 52 Z " fill-rule="evenodd" fill="white" stroke="none"/></mask><path d=" M 12 4 L 84 4 C 86.1 4 88.2 4.8 89.7 6.3 C 91.2 7.8 92 9.9 92 12 L 92 84 C 92 86.1 91.2 88.2 89.7 89.7 C 88.2 91.2 86.1 92 84 92 L 12 92 C 9.9 92 7.8 91.2 6.3 89.7 C 4.8 88.2 4 86.1 4 84 L 4 12 C 4 9.9 4.8 7.8 6.3 6.3 C 7.8 4.8 9.9 4 12 4 Z  M 12 12 L 84 12 L 84 84 L 12 84 L 12 12 Z  M 28 56 L 28 28 C 28 25.9 28.8 23.8 30.3 22.3 C 31.8 20.8 33.9 20 36 20 L 52 20 C 55.4 20 58.7 21 61.6 22.9 C 62.8 23.7 63.8 24.7 64.8 25.9 C 65.8 27.2 66.8 28.6 67.6 30.2 C 69.2 33.2 70 36.6 70.1 40 C 70 43.4 69.2 46.8 67.6 49.8 C 66.8 51.4 65.8 52.8 64.8 54.1 C 63.8 55.3 62.8 56.3 61.6 57.1 C 58.7 59 55.4 60 52 60 L 36 60 L 36 72 C 36 73.1 35.6 74.1 34.8 74.8 C 34.1 75.6 33.1 76 32 76 C 30.9 76 29.9 75.6 29.2 74.8 C 28.4 74.1 28 73.1 28 72 L 28 56 M 36 52 L 52 52 C 53.8 52 56.69093052376675 51.16657924514822 58.6 49.1 C 59.50387492417372 48.12154993217276 59.9 47.2 60.4 46.2 C 61.5 44.3 62 42.2 62.1 40 C 62 37.8 61.5 35.7 60.4 33.8 C 59.9 32.8 59.3 31.8 58.6 30.9 C 58.1 30.4 57.6 29.9 57.1 29.6 C 55.6 28.5 53.8 28 52 28 L 36 28 L 36 52 Z " fill-rule="evenodd" fill="none" stroke="none" stroke-width="16" mask="url(#_mask_BlEAxTJPlfnnOBLNoncygk35x2Rzs3X5)"/></svg>
